icons/provider_fst_fill.svg

<svg width="48" height="48" viewBox="0 0 48 48" fill="none" xmlns="http://www.w3.org/2000/svg">
<path fill-rule="evenodd" clip-rule="evenodd" d="M6 7C6 6.44771 6.44772 6 7 6H16C16.5523 6 17 6.44772 17 7V16C17 16.5523 16.5523 17 16 17H7C6.44771 17 6 16.5523 6 16V7ZM31 32C31 31.4477 31.4477 31 32 31H41C41.5523 31 42 31.4477 42 32V41C42 41.5523 41.5523 42 41 42H32C31.4477 42 31 41.5523 31 41V32ZM30.3913 28.9771L27.2071 25.7929L25.7929 27.2071L28.9771 30.3913L30.3913 28.9771ZM21.6774 20.2632L25.6545 24.2403L24.2403 25.6545L20.2632 21.6774V25.8947H18.2632V18.2632H25.8947V20.2632H21.6774Z" fill="black"/>
</svg>

<svg
  xmlns="http://www.w3.org/2000/svg"
  width="24"
  height="24"
  viewBox="0 0 24 24"
  fill="none"
  stroke="currentColor"
  stroke-width="2"
  stroke-linecap="round"
  stroke-linejoin="round"
>
  <path
    fill-rule="evenodd"
    d="M6 7a1 1 0 0 1 1-1h9a1 1 0 0 1 1 1v9a1 1 0 0 1-1 1H7a1 1 0 0 1-1-1zm25 25a1 1 0 0 1 1-1h9a1 1 0 0 1 1 1v9a1 1 0 0 1-1 1h-9a1 1 0 0 1-1-1zm-.609-3.023-3.184-3.184-1.414 1.414 3.184 3.184zm-8.714-8.714 3.977 3.977-1.414 1.415-3.977-3.978v4.218h-2v-7.632h7.632v2z"
    clip-rule="evenodd"
  />
</svg>
